src/icons/SVG/32px/Universe_ChristmasTree_32px.svg

<svg width="32" height="32" viewBox="0 0 32 32" fill="none" xmlns="http://www.w3.org/2000/svg">
<g id="Square"> </g>
<g id="Icon">
<path id="Union" fill-rule="evenodd" clip-rule="evenodd" d="M16.8003 3.4C16.6115 3.14819 16.3151 3 16.0003 3C15.6856 3 15.3892 3.14819 15.2003 3.4L11.2003 8.73333C10.9017 9.13145 10.9413 9.68855 11.2932 10.0404C11.6307 10.3779 12.0772 10.6231 12.5522 10.803L8.58109 15.3415C8.23441 15.7377 8.25429 16.3348 8.62656 16.7071C9.1744 17.2549 9.87268 17.6867 10.6445 18.0201L5.91959 23.3356C5.72737 23.5519 5.63823 23.8408 5.67519 24.1277C5.71214 24.4147 5.87157 24.6716 6.1123 24.8321C7.26366 25.5996 8.82142 26.1337 10.5077 26.4796C11.9087 26.767 13.4458 26.934 15.0003 26.984V28C15.0003 28.5523 15.448 29 16.0003 29C16.5526 29 17.0003 28.5523 17.0003 28V26.984C18.5548 26.934 20.0919 26.767 21.4929 26.4796C23.1792 26.1337 24.737 25.5996 25.8884 24.8321C26.1291 24.6716 26.2885 24.4147 26.3255 24.1277C26.3624 23.8408 26.2733 23.5519 26.0811 23.3356L21.3561 18.0201C22.128 17.6867 22.8263 17.2549 23.3741 16.7071C23.7464 16.3348 23.7663 15.7377 23.4196 15.3415L19.4484 10.803C19.9234 10.6231 20.37 10.3779 20.7074 10.0404C21.0593 9.68855 21.0989 9.13145 20.8003 8.73333L16.8003 3.4ZM19.2595 18.6718C18.2188 18.8924 17.1046 19 16.0003 19C14.8961 19 13.7819 18.8924 12.7412 18.6718L12.0736 19.4228C12.6714 20.8314 14.1432 22.0736 16.1215 22.9604C17.9315 23.7718 20.0828 24.2446 22.1547 24.2679C22.7439 24.1071 23.2777 23.9232 23.7462 23.7193L19.2595 18.6718ZM18.7443 24.8685C17.6818 24.6318 16.6546 24.2952 15.7125 23.8729C13.8148 23.0222 12.1792 21.7823 11.3527 20.2338L8.25443 23.7193C8.99099 24.0398 9.88891 24.311 10.9096 24.5204C12.4586 24.8381 14.2235 25 16.0003 25C16.9279 25 17.8522 24.9559 18.7443 24.8685ZM14.7529 11.3252C14.7664 11.3098 14.7793 11.2941 14.7916 11.2782C15.1902 11.3153 15.5972 11.3333 16.0003 11.3333C16.4035 11.3333 16.8105 11.3153 17.2091 11.2782C17.2214 11.2941 17.2343 11.3098 17.2478 11.3252L18.4418 12.6897C17.5956 14.1158 15.7796 16.0042 12.767 16.6255C12.6569 16.598 12.5484 16.569 12.4417 16.5385C11.7931 16.3532 11.2371 16.1214 10.7878 15.8567L14.7529 11.3252ZM21.2129 15.8567L19.1292 13.4754C18.3398 14.6911 16.9878 16.0881 14.9896 16.9657C15.3232 16.9885 15.6612 17 16.0003 17C17.2559 17 18.4951 16.8424 19.5589 16.5385C20.2076 16.3532 20.7636 16.1214 21.2129 15.8567ZM13.8544 9.10992C13.7214 9.07864 13.6007 9.0456 13.4916 9.01169L14.488 7.68304C14.7992 8.08346 15.1654 8.49249 15.5807 8.86997C15.7563 9.02961 15.9422 9.18503 16.1381 9.33251C16.0922 9.33306 16.0463 9.33333 16.0003 9.33333C15.2271 9.33333 14.4727 9.25542 13.8544 9.10992ZM15.1126 6.85027C15.4225 7.27497 15.8068 7.72406 16.2533 8.13003C16.7273 8.5609 17.2566 8.93024 17.8291 9.17648C17.9382 9.15617 18.0441 9.13396 18.1463 9.10992C18.2792 9.07864 18.4 9.0456 18.5091 9.01169L16.0003 5.66667L15.1126 6.85027ZM16.667 13.3333C16.667 13.7015 16.3685 14 16.0003 14C15.6321 14 15.3337 13.7015 15.3337 13.3333C15.3337 12.9651 15.6321 12.6667 16.0003 12.6667C16.3685 12.6667 16.667 12.9651 16.667 13.3333ZM14.0003 15.3333C14.3685 15.3333 14.667 15.0349 14.667 14.6667C14.667 14.2985 14.3685 14 14.0003 14C13.6321 14 13.3337 14.2985 13.3337 14.6667C13.3337 15.0349 13.6321 15.3333 14.0003 15.3333ZM17.3337 20.6667C17.3337 21.0349 17.0352 21.3333 16.667 21.3333C16.2988 21.3333 16.0003 21.0349 16.0003 20.6667C16.0003 20.2985 16.2988 20 16.667 20C17.0352 20 17.3337 20.2985 17.3337 20.6667ZM11.3337 24C11.7019 24 12.0003 23.7015 12.0003 23.3333C12.0003 22.9651 11.7019 22.6667 11.3337 22.6667C10.9655 22.6667 10.667 22.9651 10.667 23.3333C10.667 23.7015 10.9655 24 11.3337 24ZM20.0003 22C20.0003 22.3682 19.7019 22.6667 19.3337 22.6667C18.9655 22.6667 18.667 22.3682 18.667 22C18.667 21.6318 18.9655 21.3333 19.3337 21.3333C19.7019 21.3333 20.0003 21.6318 20.0003 22Z" fill="black"/>
</g>
</svg>

<svg xmlns="http://www.w3.org/2000/svg" viewBox="0 0 32 32">
  <g id="Square"> </g>
  <path fill-rule="evenodd" d="M16.8 3.4a1 1 0 00-1.6 0l-4 5.333a1 1 0 00.093 1.307c.338.338.784.583 1.26.763L8.58 15.341a1 1 0 00.046 1.366c.547.548 1.246.98 2.018 1.313L5.92 23.336a1 1 0 00.192 1.496c1.152.768 2.71 1.302 4.396 1.648 1.4.287 2.938.454 4.492.504V28a1 1 0 102 0v-1.016a26.958 26.958 0 004.493-.504c1.686-.346 3.244-.88 4.395-1.648a1 1 0 00.193-1.496l-4.725-5.316c.772-.333 1.47-.765 2.018-1.313a1 1 0 00.046-1.366l-3.972-4.538c.475-.18.922-.425 1.26-.763a1 1 0 00.092-1.307l-4-5.333zm2.46 15.272c-1.041.22-2.155.328-3.26.328-1.104 0-2.218-.108-3.259-.328l-.667.75c.597 1.41 2.07 2.652 4.048 3.538 1.81.812 3.96 1.285 6.033 1.308.589-.16 1.123-.345 1.591-.549l-4.486-5.047zm-.516 6.197a15.906 15.906 0 01-3.031-.996c-1.898-.85-3.534-2.09-4.36-3.64L8.254 23.72c.737.32 1.635.592 2.656.801 1.549.318 3.313.48 5.09.48.928 0 1.852-.044 2.744-.131zm-3.991-13.544a.993.993 0 00.039-.047 13.102 13.102 0 002.417 0 .993.993 0 00.039.047l1.194 1.365c-.846 1.426-2.662 3.314-5.675 3.935-.11-.027-.219-.056-.325-.087a7.14 7.14 0 01-1.654-.681l3.965-4.532zm6.46 4.532l-2.084-2.382a9.526 9.526 0 01-4.14 3.49c.334.023.672.035 1.011.035 1.256 0 2.495-.158 3.559-.462a7.14 7.14 0 001.654-.681zM13.854 9.11a5.352 5.352 0 01-.362-.098l.996-1.329c.311.4.677.81 1.093 1.187.175.16.361.315.557.463H16c-.773 0-1.527-.078-2.146-.223zm1.259-2.26c.31.425.694.874 1.14 1.28.474.43 1.004.8 1.576 1.046a5.368 5.368 0 00.68-.165L16 5.668l-.887 1.183zm1.554 6.483a.667.667 0 11-1.333 0 .667.667 0 011.333 0zm-2.667 2A.667.667 0 1014 14a.667.667 0 000 1.333zm3.334 5.334a.667.667 0 11-1.334 0 .667.667 0 011.334 0zm-6 3.333a.667.667 0 100-1.333.667.667 0 000 1.333zM20 22a.667.667 0 11-1.333 0A.667.667 0 0120 22z"/>
</svg>
